X: 1
T:Sean Tiobrad Arann
T:Old Tipperary
S:irtrad-l, L.LaVerne,11/97
M:6/8
L:1/8
S:David Kidd
R:Jig
P:AABB
Z:Lorna LaVerne
K:G
d |
cAF ~G3 | ABA G2d | cAG GFG | ADE F2d |
cAF ~G3 | ABA GBd | fdd edd | fdd cAd |
cAF ~G3 | ABA G2d | cAG GFG | ADE F2d |
cAF ~G3 | ABA GBd | fdd edd | fdd cAF |
GBd ~g3 | gaf g2g | dgg dgg | a2g fga |
bag agf | gfe f2e | dcA (3Bcd e | fed cAF |
GBd ~g3 | gaf g2g | dgg dgg | a2g fga |
bag agf | gfe f2e | dcA (3Bcd e | fed cAF |
